src/next/cmd/lc_freezepanesfirstrow.svg

<svg height="24" viewBox="0 0 6.3499999 6.3500003" width="24" xmlns="http://www.w3.org/2000/svg" xmlns:xlink="http://www.w3.org/1999/xlink"><linearGradient id="a" gradientUnits="userSpaceOnUse" x1="21.99999828878" x2="21.80477535848" y1="-2.00000147293" y2="22.99907671585"><stop offset="0" stop-color="#fff"/><stop offset="1" stop-color="#555"/></linearGradient><linearGradient id="b" gradientTransform="matrix(.18269429 0 0 .24456787 1.026617 -1.569094)" gradientUnits="userSpaceOnUse" x1="46.048" x2="46.048" y1="128.01709" y2="16.6203"><stop offset="0" stop-color="#c7cdd7"/><stop offset="1" stop-color="#fff"/></linearGradient><linearGradient id="c" gradientTransform="matrix(0 -.23023361 -.22782398 0 26.338393 22.848994)" gradientUnits="userSpaceOnUse" x1="75.353874" x2="74.667397" y1="111.21917" y2="18.585112"><stop offset="0" stop-color="#0c69ed" stop-opacity="0"/><stop offset=".14999999" stop-color="#1b77ef"/><stop offset=".5" stop-color="#4aa3f6"/><stop offset="1" stop-color="#89ddff"/></linearGradient><g transform="matrix(.26458334375 0 0 .26458334375 .00000032813 -.0000005625)"><g stroke-width=".649606"><path d="m2 2.9960938v3.5039062 15.5h20v-19.0039062z" fill="url(#b)"/><path d="m1.0019531 2v1 2.9960938.0058593h-.0019531v1 2.9960938 1.0000001 3.001953 1 2.996094.005859.992188.011718 2.992188 1.003906h.9980469 3.0019531 1 6 .998047 5 1 3.001953 1v-1.003906-2.992188-.005859-9.0019531-3.9960938-.0058593-3.9960938h-4-1-5-1-5.9980469-1-3.0019531zm.9980469 1h3.0019531v2.9960938h-3.0019531zm4.0019531 0h5.9980469v2.9960938h-5.9980469zm6.9980469 0h5v2.9960938h-5zm6 0h3.001953v2.9960938h-3.001953zm-17 4.0019531h3v2.9960938h-3zm4.0019531 0h5.9980469v2.9960938h-5.9628906-.0351563zm6.9960939 0h5v2.9960938h-.033203-4.964844v-2.9589844c0-.0011738-.001878-.0008031-.001953-.0019531zm6.001953 0h3v2.9960938h-3zm-17 3.9960939h3v2.996094h-3zm4.0019531 0h5.9980469v.044922 2.910156.046875h-5.9648438-.0332031v-.005859zm6.9980469 0h4.998047v3.001953h-.035156-4.964844v-.044922c.000075-.00115.001953-.000779.001953-.001953zm6 0h3v2.996094h-3zm-17 4.005859h3v2.992188h-3zm4.0019531 0h5.9980469v2.953125.039063h-5.9980469zm6.9980469 0h4.998047v2.992188h-4.998047zm6 0h3v2.992188h-3zm-17.0019531 4.001953h3.0019531v2.992188h-3.0019531zm4.0019531 0h6v2.992188h-6zm6.998047 0h5v2.992188h-5zm6 0h3.001953v2.992188h-3.001953z" fill="url(#a)"/><path d="m2.8027344 2.9960938-.8027344.8085937v1.03125l1.8125-1.8398437h-.2285156-.3867188zm2.5039062 0-2.109375 2.1289062-.8613281.8691406h1.0253906l2.9609375-2.9980468h-.2285156zm2.2792969 0-2.9746094 2.9980468h.0039063 1.0214844.0039062l.203125-.2050781.0800781-.0371094 2.7148438-2.7558593h-.0371094zm2.28125 0-2.9765625 2.9980468h.0429688.9824218.0429688l.2148437-.21875h.0019531l.0273438-.0234375 2.716797-2.7558593h-.00586-1.0039058zm2.3222655 0-2.9765624 2.9980468h1.0253904l1.966797-1.9980468.988281-1zm2.503906 0-2.488281 2.5136718-.478516.484375h1.021485l2.955078-2.9980468zm2.501953 0-2.970703 2.9980468h1.025391l2.960938-2.9980468zm2.28125 0-2.976562 2.9980468h1.03125l2.955078-2.9980468zm2.501954 0-2.970704 2.9980468h1.021485l1.970703-1.9980468v-1zm.021484 2.5136718-.478516.484375h.478516z" fill="url(#c)"/></g><path d="m1.0292969 2c-.0159742.0041511-.0273438.0184987-.0273438.0390625v.9609375 2.9960938.9570312.0429688.0039062h.9980469v-.0039062h3.0019531v.0039062h.9980469v-.0039062h.0019531 5.9980469 1 5 1 3.001953.962891c.019652 0 .035156-.0192317.035156-.0429688v-4.9140625c0-.0208813-.012955-.0352415-.029297-.0390625h-3.970703-1-5-1-5.9980469-1-3.0019531zm.9707031 1h3.0019531v2.9960938h-3.0019531zm4.0019531 0h5.9980469v2.9960938h-5.9980469zm6.9980469 0h5v2.9960938h-5zm6 0h3.001953v2.9960938h-3.001953z" fill="#06f" stroke-width=".171875"/></g></svg>

<?xml version="1.0" encoding="UTF-8" standalone="no"?>
<svg
   xmlns:dc="http://purl.org/dc/elements/1.1/"
   xmlns:cc="http://creativecommons.org/ns#"
   xmlns:rdf="http://www.w3.org/1999/02/22-rdf-syntax-ns#"
   xmlns:svg="http://www.w3.org/2000/svg"
   xmlns="http://www.w3.org/2000/svg"
   xmlns:xlink="http://www.w3.org/1999/xlink"
   xmlns:sodipodi="http://sodipodi.sourceforge.net/DTD/sodipodi-0.dtd"
   xmlns:inkscape="http://www.inkscape.org/namespaces/inkscape"
   height="24"
   viewBox="0 0 6.3499999 6.3500003"
   width="24"
   version="1.1"
   id="svg39"
   sodipodi:docname="lc_freezepanesfirstrow.svg"
   inkscape:version="0.92.4 (unknown)"
   inkscape:export-filename="/home/rizmut/Dokumen/Rizmut/Github/libreoffice-style-karasa-jaga/build/next/cmd/lc_freezepanesfirstrow.png"
   inkscape:export-xdpi="96"
   inkscape:export-ydpi="96">
  <metadata
     id="metadata45">
    <rdf:RDF>
      <cc:Work
         rdf:about="">
        <dc:format>image/svg+xml</dc:format>
        <dc:type
           rdf:resource="http://purl.org/dc/dcmitype/StillImage" />
        <dc:title></dc:title>
      </cc:Work>
    </rdf:RDF>
  </metadata>
  <defs
     id="defs43">
    <linearGradient
       inkscape:collect="always"
       xlink:href="#a"
       id="linearGradient885"
       gradientUnits="userSpaceOnUse"
       x1="32.328773"
       y1="253.89874"
       x2="32.028248"
       y2="292.38217"
       gradientTransform="matrix(0.64960629,0,0,0.64960629,0.99902379,-166.93422)" />
  </defs>
  <sodipodi:namedview
     pagecolor="#ffffff"
     bordercolor="#666666"
     borderopacity="1"
     objecttolerance="10"
     gridtolerance="10"
     guidetolerance="10"
     inkscape:pageopacity="0"
     inkscape:pageshadow="2"
     inkscape:window-width="1366"
     inkscape:window-height="714"
     id="namedview41"
     showgrid="true"
     inkscape:zoom="20.85965"
     inkscape:cx="9.3287601"
     inkscape:cy="12.853654"
     inkscape:window-x="0"
     inkscape:window-y="28"
     inkscape:window-maximized="1"
     inkscape:current-layer="g37">
    <inkscape:grid
       type="xygrid"
       id="grid852" />
  </sodipodi:namedview>
  <linearGradient
     id="a"
     gradientUnits="userSpaceOnUse"
     x1="32.028248"
     x2="32.028248"
     y1="256.97659"
     y2="292.38217">
    <stop
       offset="0"
       stop-color="#fff"
       id="stop2" />
    <stop
       offset="1"
       stop-color="#555"
       id="stop4" />
  </linearGradient>
  <linearGradient
     id="b"
     gradientTransform="matrix(0.18269429,0,0,0.24456787,1.0266172,-1.5690936)"
     gradientUnits="userSpaceOnUse"
     x1="46.048"
     x2="46.048"
     y1="128.01709"
     y2="16.6203">
    <stop
       offset="0"
       stop-color="#c7cdd7"
       id="stop7" />
    <stop
       offset="1"
       stop-color="#fff"
       id="stop9" />
  </linearGradient>
  <linearGradient
     id="c"
     gradientTransform="matrix(0,-0.23023361,-0.22782398,0,26.338393,22.848994)"
     gradientUnits="userSpaceOnUse"
     x1="75.353874"
     x2="74.667397"
     xlink:href="#d"
     y1="111.21917"
     y2="18.585112" />
  <linearGradient
     id="d"
     gradientUnits="userSpaceOnUse"
     x1="155.6768"
     x2="58.676701"
     y1="84.944298"
     y2="-35.055599">
    <stop
       offset="0"
       stop-color="#0c69ed"
       stop-opacity="0"
       id="stop13" />
    <stop
       offset=".14999999"
       stop-color="#1b77ef"
       id="stop15" />
    <stop
       offset=".5"
       stop-color="#4aa3f6"
       id="stop17" />
    <stop
       offset="1"
       stop-color="#89ddff"
       id="stop19" />
  </linearGradient>
  <linearGradient
     id="e"
     gradientTransform="matrix(0.2302336,0,0,0.24391936,-14.120071,-1.6177838)"
     gradientUnits="userSpaceOnUse"
     x1="74.359566"
     x2="74.667397"
     xlink:href="#d"
     y1="98.87606"
     y2="18.585112" />
  <g
     transform="matrix(0.171875,0,0,0.171875,0.26484173,-45.226944)"
     id="g37">
    <path
       style="fill:url(#b);stroke-width:0.64960629"
       d="M 2 2.9960938 L 2 6.5 L 2 22 L 22 22 L 22 2.9960938 L 2 2.9960938 z "
       transform="matrix(1.539394,0,0,1.539394,-1.5408973,263.13858)"
       id="path23" />
    <path
       style="fill:url(#linearGradient885);stroke-width:0.64960629"
       d="M 1.0019531 2 L 1.0019531 3 L 1.0019531 5.9960938 L 1.0019531 6.0019531 L 1 6.0019531 L 1 7.0019531 L 1 9.9980469 L 1 10.998047 L 1 14 L 1 15 L 1 17.996094 L 1 18.001953 L 1 18.994141 L 1 19.005859 L 1 21.998047 L 1 23.001953 L 1.9980469 23.001953 L 5 23.001953 L 6 23.001953 L 12 23.001953 L 12.998047 23.001953 L 17.998047 23.001953 L 18.998047 23.001953 L 22 23.001953 L 23 23.001953 L 23 21.998047 L 23 19.005859 L 23 19 L 23 9.9980469 L 23 6.0019531 L 23 5.9960938 L 23 2 L 19 2 L 18 2 L 13 2 L 12 2 L 6.0019531 2 L 5.0019531 2 L 2 2 L 1.0019531 2 z M 2 3 L 5.0019531 3 L 5.0019531 5.9960938 L 2 5.9960938 L 2 3 z M 6.0019531 3 L 12 3 L 12 5.9960938 L 6.0019531 5.9960938 L 6.0019531 3 z M 13 3 L 18 3 L 18 5.9960938 L 13 5.9960938 L 13 3 z M 19 3 L 22.001953 3 L 22.001953 5.9960938 L 19 5.9960938 L 19 3 z M 2 7.0019531 L 5 7.0019531 L 5 9.9980469 L 2 9.9980469 L 2 7.0019531 z M 6.0019531 7.0019531 L 12 7.0019531 L 12 9.9980469 L 6.0371094 9.9980469 L 6.0019531 9.9980469 L 6.0019531 7.0019531 z M 12.998047 7.0019531 L 17.998047 7.0019531 L 17.998047 9.9980469 L 17.964844 9.9980469 L 13 9.9980469 L 13 7.0390625 C 13 7.0378887 12.998122 7.0382594 12.998047 7.0371094 L 12.998047 7.0019531 z M 19 7.0019531 L 22 7.0019531 L 22 9.9980469 L 19 9.9980469 L 19 7.0019531 z M 2 10.998047 L 5 10.998047 L 5 13.994141 L 2 13.994141 L 2 10.998047 z M 6.0019531 10.998047 L 12 10.998047 L 12 11.042969 L 12 13.953125 L 12 14 L 6.0351562 14 L 6.0019531 14 L 6.0019531 13.994141 L 6.0019531 10.998047 z M 13 10.998047 L 17.998047 10.998047 L 17.998047 14 L 17.962891 14 L 12.998047 14 L 12.998047 13.955078 C 12.998122 13.953928 13 13.954299 13 13.953125 L 13 10.998047 z M 19 10.998047 L 22 10.998047 L 22 13.994141 L 19 13.994141 L 19 10.998047 z M 2 15.003906 L 5 15.003906 L 5 17.996094 L 2 17.996094 L 2 15.003906 z M 6.0019531 15.003906 L 12 15.003906 L 12 17.957031 L 12 17.996094 L 6.0019531 17.996094 L 6.0019531 15.003906 z M 13 15.003906 L 17.998047 15.003906 L 17.998047 17.996094 L 13 17.996094 L 13 15.003906 z M 19 15.003906 L 22 15.003906 L 22 17.996094 L 19 17.996094 L 19 15.003906 z M 1.9980469 19.005859 L 5 19.005859 L 5 21.998047 L 1.9980469 21.998047 L 1.9980469 19.005859 z M 6 19.005859 L 12 19.005859 L 12 21.998047 L 6 21.998047 L 6 19.005859 z M 12.998047 19.005859 L 17.998047 19.005859 L 17.998047 21.998047 L 12.998047 21.998047 L 12.998047 19.005859 z M 18.998047 19.005859 L 22 19.005859 L 22 21.998047 L 18.998047 21.998047 L 18.998047 19.005859 z "
       transform="matrix(1.539394,0,0,1.539394,-1.5408973,263.13858)"
       id="path883" />
    <path
       style="fill:url(#c);stroke-width:0.64960629"
       d="M 2.8027344 2.9960938 L 2 3.8046875 L 2 4.8359375 L 3.8125 2.9960938 L 3.5839844 2.9960938 L 3.1972656 2.9960938 L 2.8027344 2.9960938 z M 5.3066406 2.9960938 L 3.1972656 5.125 L 2.3359375 5.9941406 L 3.3613281 5.9941406 L 6.3222656 2.9960938 L 6.09375 2.9960938 L 5.3066406 2.9960938 z M 7.5859375 2.9960938 L 4.6113281 5.9941406 L 4.6152344 5.9941406 L 5.6367188 5.9941406 L 5.640625 5.9941406 L 5.84375 5.7890625 L 5.9238281 5.7519531 L 8.6386719 2.9960938 L 8.6015625 2.9960938 L 7.5859375 2.9960938 z M 9.8671875 2.9960938 L 6.890625 5.9941406 L 6.9335938 5.9941406 L 7.9160156 5.9941406 L 7.9589844 5.9941406 L 8.1738281 5.7753906 L 8.1757812 5.7753906 L 8.203125 5.7519531 L 10.919922 2.9960938 L 10.914062 2.9960938 L 9.9101562 2.9960938 L 9.8671875 2.9960938 z M 12.189453 2.9960938 L 9.2128906 5.9941406 L 10.238281 5.9941406 L 12.205078 3.9960938 L 13.193359 2.9960938 L 12.189453 2.9960938 z M 14.693359 2.9960938 L 12.205078 5.5097656 L 11.726562 5.9941406 L 12.748047 5.9941406 L 15.703125 2.9960938 L 14.693359 2.9960938 z M 17.195312 2.9960938 L 14.224609 5.9941406 L 15.25 5.9941406 L 18.210938 2.9960938 L 17.195312 2.9960938 z M 19.476562 2.9960938 L 16.5 5.9941406 L 17.53125 5.9941406 L 20.486328 2.9960938 L 19.476562 2.9960938 z M 21.978516 2.9960938 L 19.007812 5.9941406 L 20.029297 5.9941406 L 22 3.9960938 L 22 2.9960938 L 21.978516 2.9960938 z M 22 5.5097656 L 21.521484 5.9941406 L 22 5.9941406 L 22 5.5097656 z "
       transform="matrix(1.539394,0,0,1.539394,-1.5408973,263.13858)"
       id="path29" />
    <path
       style="fill:#0066ff;stroke-width:0.171875"
       d="M 1.0292969 2 C 1.0133227 2.0041511 1.0019531 2.0184987 1.0019531 2.0390625 L 1.0019531 3 L 1.0019531 5.9960938 L 1.0019531 6.953125 L 1.0019531 6.9960938 L 1.0019531 7 L 2 7 L 2 6.9960938 L 5.0019531 6.9960938 L 5.0019531 7 L 6 7 L 6 6.9960938 L 6.0019531 6.9960938 L 12 6.9960938 L 13 6.9960938 L 18 6.9960938 L 19 6.9960938 L 22.001953 6.9960938 L 22.964844 6.9960938 C 22.984496 6.9960938 23 6.9768621 23 6.953125 L 23 2.0390625 C 23 2.0181812 22.987045 2.003821 22.970703 2 L 19 2 L 18 2 L 13 2 L 12 2 L 6.0019531 2 L 5.0019531 2 L 2 2 L 1.0292969 2 z M 2 3 L 5.0019531 3 L 5.0019531 5.9960938 L 2 5.9960938 L 2 3 z M 6.0019531 3 L 12 3 L 12 5.9960938 L 6.0019531 5.9960938 L 6.0019531 3 z M 13 3 L 18 3 L 18 5.9960938 L 13 5.9960938 L 13 3 z M 19 3 L 22.001953 3 L 22.001953 5.9960938 L 19 5.9960938 L 19 3 z "
       transform="matrix(1.539394,0,0,1.539394,-1.5408973,263.13858)"
       id="path31" />
  </g>
</svg>
